assets/img/braze_icons/train.svg

<svg fill="none" height="24" viewBox="0 0 24 24" width="24" xmlns="http://www.w3.org/2000/svg"><g fill="#801ed7"><path d="m8 1c-.55228 0-1 .44772-1 1s.44772 1 1 1h3v1h-2.24129c-.80496-.00001-1.46934-.00002-2.01053.0442-.5621.04592-1.0788.14448-1.56414.39178-.75265.38349-1.36457.99541-1.74806 1.74806-.24729.48534-.34586 1.00204-.39178 1.56414-.01773.21691-.02889.4343-.0358.65193-.01722.54209-.02583.81313.08057 1.03396.09166.19025.25118.35491.43842.45257.21733.11336.50243.11336 1.07261.11336h14.8c.5702 0 .8553 0 1.0726-.11336.1873-.09766.3468-.26232.4384-.45257.1064-.22082.0978-.49187.0806-1.03396-.0069-.21763-.0181-.43502-.0358-.65193-.0459-.5621-.1445-1.0788-.3918-1.56414-.3835-.75265-.9954-1.36457-1.748-1.74806-.4854-.2473-1.0021-.34586-1.5642-.39178-.5412-.04422-1.2055-.04421-2.0105-.0442h-2.2413v-1h3c.5523 0 1-.44772 1-1s-.4477-1-1-1z"/><path d="m9.5 21c-.55228 0-1 .4477-1 1s.44772 1 1 1h5c.5523 0 1-.4477 1-1s-.4477-1-1-1z"/><path clip-rule="evenodd" d="m16.3788 19.9939c-.3432.0061-.7216.0061-1.1375.0061h-6.48262c-.41588 0-.79429 0-1.13752-.0061l-1.22676 2.4535c-.24698.494-.84766.6942-1.34164.4472-.49397-.2469-.6942-.8476-.44721-1.3416l.9201-1.8402c-.11566-.0424-.22947-.0916-.34161-.1488-.75265-.3835-1.36457-.9954-1.74806-1.748-.24729-.4854-.34586-1.0021-.39178-1.5642-.04422-.5412-.04421-1.2055-.0442-2.0105v-.6413c0-.5601 0-.8401.109-1.054.09587-.1882.24885-.3411.43701-.437.21391-.109.49394-.109 1.05399-.109h14.8c.5601 0 .8401 0 1.054.109.1882.0959.3411.2488.437.437.109.2139.109.4939.109 1.054v.6413c0 .805 0 1.4693-.0442 2.0105-.0459.5621-.1445 1.0788-.3918 1.5642-.3835.7526-.9954 1.3645-1.748 1.748-.1122.0572-.226.1064-.3417.1488l.9201 1.8402c.247.494.0468 1.0947-.4472 1.3416-.494.247-1.0947.0468-1.3417-.4472zm-7.8788-5.9939c-.82842 0-1.5.6716-1.5 1.5s.67158 1.5 1.5 1.5c.82843 0 1.5-.6716 1.5-1.5s-.67157-1.5-1.5-1.5zm7 0c-.8284 0-1.5.6716-1.5 1.5s.6716 1.5 1.5 1.5 1.5-.6716 1.5-1.5-.6716-1.5-1.5-1.5z" fill-rule="evenodd"/></g></svg>

<svg width="24" height="24" viewBox="0 0 24 24" fill="none" xmlns="http://www.w3.org/2000/svg">
<path d="M8 1C7.44772 1 7 1.44772 7 2C7 2.55228 7.44772 3 8 3H11V4H8.75871C7.95375 3.99999 7.28937 3.99998 6.74818 4.0442C6.18608 4.09012 5.66938 4.18868 5.18404 4.43598C4.43139 4.81947 3.81947 5.43139 3.43598 6.18404C3.18869 6.66938 3.09012 7.18608 3.0442 7.74818C3.02647 7.96509 3.01531 8.18248 3.0084 8.40011C2.99118 8.9422 2.98257 9.21324 3.08897 9.43407C3.18063 9.62432 3.34015 9.78898 3.52739 9.88664C3.74472 10 4.02982 10 4.6 10H19.4C19.9702 10 20.2553 10 20.4726 9.88664C20.6599 9.78898 20.8194 9.62432 20.911 9.43407C21.0174 9.21325 21.0088 8.9422 20.9916 8.40011C20.9847 8.18248 20.9735 7.96509 20.9558 7.74818C20.9099 7.18608 20.8113 6.66938 20.564 6.18404C20.1805 5.43139 19.5686 4.81947 18.816 4.43598C18.3306 4.18868 17.8139 4.09012 17.2518 4.0442C16.7106 3.99998 16.0463 3.99999 15.2413 4H13V3H16C16.5523 3 17 2.55228 17 2C17 1.44772 16.5523 1 16 1H8Z" fill="#801ED7"/>
<path d="M9.5 21C8.94772 21 8.5 21.4477 8.5 22C8.5 22.5523 8.94772 23 9.5 23H14.5C15.0523 23 15.5 22.5523 15.5 22C15.5 21.4477 15.0523 21 14.5 21H9.5Z" fill="#801ED7"/>
<path fill-rule="evenodd" clip-rule="evenodd" d="M16.3788 19.9939C16.0356 20 15.6572 20 15.2413 20H8.75868C8.3428 20 7.96439 20 7.62116 19.9939L6.3944 22.4474C6.14742 22.9414 5.54674 23.1416 5.05276 22.8946C4.55879 22.6477 4.35856 22.047 4.60555 21.553L5.52565 19.7128C5.40999 19.6704 5.29618 19.6212 5.18404 19.564C4.43139 19.1805 3.81947 18.5686 3.43598 17.816C3.18869 17.3306 3.09012 16.8139 3.0442 16.2518C2.99998 15.7106 2.99999 15.0463 3 14.2413V13.6C3 13.0399 3 12.7599 3.109 12.546C3.20487 12.3578 3.35785 12.2049 3.54601 12.109C3.75992 12 4.03995 12 4.6 12H19.4C19.9601 12 20.2401 12 20.454 12.109C20.6422 12.2049 20.7951 12.3578 20.891 12.546C21 12.7599 21 13.0399 21 13.6V14.2413C21 15.0463 21 15.7106 20.9558 16.2518C20.9099 16.8139 20.8113 17.3306 20.564 17.816C20.1805 18.5686 19.5686 19.1805 18.816 19.564C18.7038 19.6212 18.59 19.6704 18.4743 19.7128L19.3944 21.553C19.6414 22.047 19.4412 22.6477 18.9472 22.8946C18.4532 23.1416 17.8525 22.9414 17.6055 22.4474L16.3788 19.9939ZM8.5 14C7.67158 14 7 14.6716 7 15.5C7 16.3284 7.67158 17 8.5 17C9.32843 17 10 16.3284 10 15.5C10 14.6716 9.32843 14 8.5 14ZM15.5 14C14.6716 14 14 14.6716 14 15.5C14 16.3284 14.6716 17 15.5 17C16.3284 17 17 16.3284 17 15.5C17 14.6716 16.3284 14 15.5 14Z" fill="#801ED7"/>
</svg>
